img/hero/links/upwork.svg

<svg width="20" height="20" viewBox="0 0 20 20" fill="none" xmlns="http://www.w3.org/2000/svg">
<path fill-rule="evenodd" clip-rule="evenodd" d="M10 20C15.5228 20 20 15.5228 20 10C20 4.47715 15.5228 0 10 0C4.47715 0 0 4.47715 0 10C0 15.5228 4.47715 20 10 20ZM3.05585 11.2818C3.00372 11.0309 3 10.8633 3 8.76101V6.50902L3.85753 6.5163L4.71507 6.52358L4.72973 8.77614L4.74439 11.0287L4.81472 11.1935C5.07309 11.7989 5.64194 12.1694 6.31169 12.1684C7.08201 12.1673 7.75004 11.6274 7.86437 10.9136C7.8849 10.7854 7.89601 9.97756 7.89601 8.6125V6.50902L8.75093 6.5163L9.60583 6.52358L9.78619 7.01805C10.167 8.06208 10.635 9.00761 11.1309 9.73488C11.2533 9.91446 11.2826 9.94292 11.3009 9.89971C11.3131 9.87097 11.3794 9.71206 11.4483 9.54652C11.7263 8.87855 12.238 8.26069 12.792 7.92382C14.7496 6.73362 17.3489 7.72651 17.931 9.88682C18.0233 10.2297 18.0229 10.9776 17.9302 11.322C17.6439 12.3856 16.8704 13.2124 15.8021 13.5968C15.2271 13.8038 14.4814 13.85 13.8007 13.7208C13.3532 13.6359 13.0589 13.5367 12.6333 13.3272L12.3036 13.165L12.0799 14.1571C11.6227 16.1837 11.5585 16.4627 11.5434 16.4856C11.5349 16.4985 11.1378 16.509 10.6609 16.509H9.79393L9.81008 16.406C9.82439 16.3147 10.1942 14.6826 10.6656 12.6302C10.7548 12.2419 10.8277 11.9131 10.8277 11.8995C10.8277 11.8859 10.7627 11.7942 10.6831 11.6957C10.3763 11.3159 10.0998 10.9008 9.79443 10.3616L9.63444 10.079L9.61653 10.5951C9.60404 10.9558 9.58146 11.1814 9.54159 11.3446C9.07131 13.2695 6.90669 14.3188 4.99851 13.547C4.00054 13.1433 3.2643 12.2849 3.05585 11.2818ZM16.236 10.206C16.085 9.66294 15.5907 9.20603 15.0171 9.07933C14.7827 9.02758 14.381 9.02816 14.173 9.0806C14.086 9.10252 13.9482 9.15422 13.8667 9.19553C13.6911 9.28454 13.4056 9.52493 13.3183 9.65745C13.284 9.70928 13.242 9.74351 13.2247 9.73354C13.2075 9.72354 13.2017 9.72796 13.2118 9.74332C13.222 9.75867 13.1861 9.85641 13.1321 9.96047C12.997 10.2208 12.9246 10.4396 12.8193 10.9051C12.7287 11.306 12.6926 11.4199 12.7335 11.4863C12.757 11.5244 12.8058 11.5469 12.8841 11.5991C13.4735 11.9918 14.0026 12.1687 14.5876 12.1687C14.9159 12.1687 15.1346 12.1194 15.4132 11.9827C15.7977 11.794 16.1234 11.4049 16.236 10.9998C16.2934 10.7932 16.2934 10.4127 16.236 10.206Z" fill="white"/>
</svg>

<svg width="20" height="20" fill="none" xmlns="http://www.w3.org/2000/svg"><path fill-rule="evenodd" clip-rule="evenodd" d="M10 20c5.523 0 10-4.477 10-10S15.523 0 10 0 0 4.477 0 10s4.477 10 10 10Zm-6.944-8.718C3.004 11.03 3 10.863 3 8.76V6.509l.858.007.857.008.015 2.252.014 2.253.07.165a1.59 1.59 0 0 0 1.498.974c.77 0 1.438-.54 1.552-1.254.02-.129.032-.936.032-2.301V6.509l.855.007.855.008.18.494c.381 1.044.849 1.99 1.345 2.717.122.18.152.208.17.165l.147-.353c.278-.668.79-1.286 1.344-1.623 1.958-1.19 4.557-.197 5.139 1.963.092.343.092 1.09 0 1.435-.287 1.064-1.06 1.89-2.129 2.275-.575.207-1.32.253-2.001.124a4.068 4.068 0 0 1-1.168-.394l-.33-.162-.223.992c-.457 2.027-.521 2.306-.537 2.329-.008.012-.405.023-.882.023h-.867l.016-.103c.014-.091.384-1.723.856-3.776.089-.388.162-.717.162-.73 0-.014-.065-.106-.145-.204a9.544 9.544 0 0 1-.889-1.334l-.16-.283-.017.516c-.013.36-.036.586-.075.75-.47 1.925-2.635 2.974-4.543 2.202-.998-.404-1.735-1.262-1.943-2.265Zm13.18-1.076c-.151-.543-.645-1-1.219-1.127a2.297 2.297 0 0 0-.844.002 1.78 1.78 0 0 0-.306.115c-.176.089-.461.329-.549.461-.034.052-.076.087-.093.077-.018-.01-.023-.006-.013.01.01.015-.026.112-.08.216-.135.26-.207.48-.313.945-.09.401-.126.515-.086.581.024.038.073.06.151.113.59.393 1.119.57 1.704.57.328 0 .547-.05.825-.186.385-.189.71-.578.823-.983a1.851 1.851 0 0 0 0-.794Z" fill="#fff"/></svg>
